X:1
T:Title
L:1/8
M:6/8
I:linebreak $
K:D
V:1 treble nm="Voice"
V:1
"Em" E3 BAF | FEB AFB | E3 BAF |"D" dAF FED |"Em" E3 BAF | FEB AFA | B3 BAB |"D" dAF FED :: %8
"Em" BAB e3 | fed e2 d | BAB g2 e |"D" fdB AFA |"Em" BAB e3 |"Em" fed e2 f | gbg"D" faf | %15
"Em" edB"D" AFD :| %16
